style-guide/assets/wds-icons-page-list-small.svg

<svg xmlns="http://www.w3.org/2000/svg" xmlns:xlink="http://www.w3.org/1999/xlink" width="18" height="18" viewBox="0 0 18 18">
  <defs>
    <path id="page-list-a" d="M3,15 L6,15 L6,12 L3,12 L3,15 Z M7,10 L2,10 C1.447,10 1,10.447 1,11 L1,16 C1,16.553 1.447,17 2,17 L7,17 C7.553,17 8,16.553 8,16 L8,11 C8,10.447 7.553,10 7,10 Z M11.5869,3 L15.9999,3 C16.5529,3 16.9999,2.553 16.9999,2 C16.9999,1.447 16.5529,1 15.9999,1 L11.5869,1 C11.0339,1 10.5869,1.447 10.5869,2 C10.5869,2.553 11.0339,3 11.5869,3 M16,15 L11.587,15 C11.034,15 10.587,15.447 10.587,16 C10.587,16.553 11.034,17 11.587,17 L16,17 C16.553,17 17,16.553 17,16 C17,15.447 16.553,15 16,15 M16,5 L11.587,5 C11.034,5 10.587,5.447 10.587,6 C10.587,6.553 11.034,7 11.587,7 L16,7 C16.553,7 17,6.553 17,6 C17,5.447 16.553,5 16,5 M3,6 L6,6 L6,3 L3,3 L3,6 Z M7,1 L2,1 C1.447,1 1,1.447 1,2 L1,7 C1,7.553 1.447,8 2,8 L7,8 C7.553,8 8,7.553 8,7 L8,2 C8,1.447 7.553,1 7,1 Z M16,11 L11.587,11 C11.034,11 10.587,11.447 10.587,12 C10.587,12.553 11.034,13 11.587,13 L16,13 C16.553,13 17,12.553 17,12 C17,11.447 16.553,11 16,11"/>
  </defs>
  <use fill-rule="evenodd" xlink:href="#page-list-a"/>
</svg>

<svg viewBox="0 0 18 18" xmlns="http://www.w3.org/2000/svg">
  <path d="M3 15h3v-3H3v3zm4-5H2a1 1 0 0 0-1 1v5a1 1 0 0 0 1 1h5a1 1 0 0 0 1-1v-5a1 1 0 0 0-1-1zm4.587-7H16a1 1 0 1 0 0-2h-4.413a1 1 0 1 0 0 2M16 15h-4.413a1 1 0 1 0 0 2H16a1 1 0 1 0 0-2m0-10h-4.413a1 1 0 1 0 0 2H16a1 1 0 1 0 0-2M3 6h3V3H3v3zm4-5H2a1 1 0 0 0-1 1v5a1 1 0 0 0 1 1h5a1 1 0 0 0 1-1V2a1 1 0 0 0-1-1zm9 10h-4.413a1 1 0 1 0 0 2H16a1 1 0 1 0 0-2"/>
</svg>
